!!!!SEGMENT: pl-kk--kk-i-6--027-003_anonim--officium-octavi-toni-patrem.krn
!!!cenid: 16xx:996
!!!COM: Anonim
!!!COM-rismid: pe30004985
!!!CDT:
!!!CNT:
!!!OPR: Officium Octavi Toni
!!!OTL: Patrem
!!!OMV: 003
!!!PDT:
!!!AGN: Sacred
!!!SMS-siglum: PL-Kk
!!!SMS-shelfmark: Kk.I.6
!!!SMS-shelfwork: 027-003 M
!!!SMS-variant:
!!!SMS-altvar:
!!!NIFC-rismid: 1001136049
!!!URL-scan: http://repozytorium.nifc.pl/skany/pl-kk-nut--i-6
!!!ONB-nifc: UWAGA: C (skan 0034-0036, s. 62-71), T (skan 0138-0140, s. 76-86), B (skan 0248-0250, s. 75-84) Części Officium: 1. Kyrie, 2. Et in terra, 3. Patrem, 4. Sanctus, 5. Agnus Dei
**kern	**text	**kern	**text	**kern	**text
*part3	*part3	*part2	*part2	*part1	*part1
*staff3	*staff3	*staff2	*staff2	*staff1	*staff1
*Iempty	*	*Itenor	*	*Ivox	*
*I"[Baſsus.]	*	*I"[Tenor.]	*	*I"[Cantus.]	*
*I'[B]	*	*I'[T]	*	*I'[C]	*
*clefF3	*	*clefC3	*	*clefC4	*
*k[]	*	*k[]	*	*k[]	*
*C:	*	*C:	*	*C:	*
*M2/1	*	*M2/1	*	*M2/1	*
*met(C|)	*	*met(C|)	*	*met(C|)	*
=1-	=1-	=1-	=1-	=1-	=1-
!!LO:TX:t=P:problem:all\center:global
!!LO:TX:t=P:problem:4/center:global
!LO:TX:t=P:problem:przed kluczem inicjał P	!	!LO:TX:t=P:problem:przed kluczem inicjał P	!	!LO:TX:t=P:problem:przed kluczem inicjał P	!
1r	.	1G	PA-	0r	.
1C	PA-	1c	-trem	.	.
=2-	=2-	=2-	=2-	=2-	=2-
1F	-trem	1A	O-	0r	.
1D	Om-	2d\	-mni-	.	.
.	.	2d\	-po-	.	.
=3-	=3-	=3-	=3-	=3-	=3-
2G\	-ni-	1B	-ten-	1r	.
2G\	-po-	.	.	.	.
1E	-ten-	1e	-tem	1G	PA-
=4-	=4-	=4-	=4-	=4-	=4-
1C	-tem	2r	.	1c	-trem
.	.	1e	fac-	.	.
2r	.	.	.	1A	O-
2F/	fac-	1f\	-to-	.	.
=5-	=5-	=5-	=5-	=5-	=5-
2D/	-to-	.	.	2d\	-mni-
!	!	!	!	!LO:TX:t=P:problem:kreska pseudotaktowa	!
2D/	-rem	1d	-rem	2d\	-po-
1G	Cae-	.	.	1B	-ten-
.	.	1g\	Cae-	.	.
=6-	=6-	=6-	=6-	=6-	=6-
!LO:SIC:v:t=custos C	!	!	!	!	!
1.C	-li	.	.	2G/	-tem
!	!	!	!	!LO:TX:t=P:problem:kreska pseudotaktowa	!
.	.	1e	-li	2G/	fac-
.	.	.	.	2c\	-to-
!LO:LB:g=original	!	!	!	!	!
2C/	et	2.c/	et	2c\	-rem
=7-	=7-	=7-	=7-	=7-	=7-
2.F/	ter-	.	.	1A	cae-
!	!	!LO:SIC:v:t=custos c	!	!	!
.	.	4A/	.	.	.
!	!	!LO:LB:g=original	!	!	!
.	.	2.c/	ter-	.	.
4E/	.	.	.	.	.
1D	.	.	.	2F/	-li
.	.	8B/L	.	.	.
.	.	8A/J	.	.	.
.	.	2B/	.	2F/	et
=8-	=8-	=8-	=8-	=8-	=8-
!	!	!	!	!LO:SIC:v:t=custos C	!
1C	-rae	2c/	-rae	1G	ter-
.	.	1e	vi-	.	.
!	!	!	!	!LO:LB:g=original	!
2r	.	.	.	2C/	-rae
1C/	vi-	2e\	-si-	2.c\	vi-
=9-	=9-	=9-	=9-	=9-	=9-
.	.	1.c	-bi-	.	.
.	.	.	.	4c\	-si-
!	!	!	!	!LO:TX:t=P:problem:kreska pseudotaktowa	!
2C/	-si-	.	.	2G/	-bi-
2F/	-bi-	.	.	2A/	-li-
2A\	-li-	2c/	-li-	2c\	-um
=10-	=10-	=10-	=10-	=10-	=10-
1G	-um	1d	-um	2c\	Om-
!	!	!	!	!LO:TX:t=P:problem:kreska pseudotaktowa	!
.	.	.	.	2B\	-ni-
2.c\	O-	2.e\	o-	1c	-um
4B\	.	4d\	.	.	.
=11-	=11-	=11-	=11-	=11-	=11-
2A\	.	2c/	-mni-	2r	.
2A\	-mni-	2c/	-um	1c	et
1G	-um	2d\	et	.	.
!	!	!	!	!LO:TX:t=P:problem:kreska pseudotaktowa	!
.	.	2e\	in-	2B\	in
=12-	=12-	=12-	=12-	=12-	=12-
2r	.	0f	-vi-	2A/	vi-
1F	et	.	.	2A/	-ſi-
.	.	.	.	2.c\	-bi-
!LO:SIC:v:t=custos G	!	!	!	!	!
2F/	in	.	.	.	.
.	.	.	.	8B\L	.
!	!	!	!	!LO:TX:t=P:problem:kreska pseudotaktowa	!
.	.	.	.	8A\J	.
=13-	=13-	=13-	=13-	=13-	=13-
!LO:LB:g=original	!	!	!	!	!
2G\	vi-	2d\	-ſi-	2B\	.
!	!	!LO:SIC:v:t=custos d	!	!LO:SIC:v:t=custos A	!
2C/	-si-	2e\	-bi-	2c\	.
!	!	!LO:LB:g=original	!	!LO:PB:g=original	!
2D/	-bi-	1.d	.	2A/	.
!	!	!	!	!LO:TX:t=P:problem:kreska pseudotaktowa	!
2D/	-li-	.	.	2A/	-li-
=14-	=14-	=14-	=14-	=14-	=14-
1G	-um	.	.	2G,</	-um
!	!	!	!	!LO:TX:t=P:problem:kreska pseudotaktowa	!
.	.	2d\	-li-	2G/	et
1r	.	1c	-um	2A/	in
.	.	.	.	1c\	U-
=15-	=15-	=15-	=15-	=15-	=15-
1G	et	0r	.	.	.
!	!	!	!	!LO:TX:t=P:problem:kreska pseudotaktowa	!
.	.	.	.	2B\	-num
2A\	in	.	.	2c\	Do-
1c\	u-	.	.	2A/	-mi-
=16-	=16-	=16-	=16-	=16-	=16-
.	.	0r	.	1G	-num
2B\	-num	.	.	.	.
1c	Do-	.	.	1r	.
=17-	=17-	=17-	=17-	=17-	=17-
1A	-mi-	1r	.	1.c	Je-
1G	-num	1d	et	.	.
!	!	!	!	!LO:TX:t=P:problem:kreska pseudotaktowa	!
.	.	.	.	2B\	-sum
=18-	=18-	=18-	=18-	=18-	=18-
1C	Je-	2e\	in	2.c\	Chri-
.	.	1g	u-	.	.
.	.	.	.	4B\	.
!	!	!	!	!LO:TX:t=P:problem:kreska pseudotaktowa	!
1D	-ſum	.	.	1A	.
.	.	2f\	-n(um)	.	.
=19-	=19-	=19-	=19-	=19-	=19-
2.E/	Chri-	2g\	Do-	2G/	-ſtum
.	.	2e\	-mi-	1c	Je-
4F/	.	.	.	.	.
!LO:SIC:v:t=custos C	!	!	!	!	!
1G	.	1d	-num	.	.
!	!	!	!	!LO:SIC:v:t=custos c	!
!	!	!	!	!LO:TX:t=P:problem:kreska pseudotaktowa	!
.	.	.	.	2B\	-ſum
=20-	=20-	=20-	=20-	=20-	=20-
*	*	*	*	*lig	*
!LO:PB:g=original	!	!	!	!LO:LB:g=original	!
1C	-ſtum	2e\	Je-	1c	Chri-
.	.	2e\	-ſ(um)	.	.
1r	.	1f	Chriſ-	1F	.
*	*	*	*	*Xlig	*
=21-	=21-	=21-	=21-	=21-	=21-
2r	.	2e\	-t(um)	2c\	-stum
2.C/	fi-	2.e\	fi-	2.c\	fi-
4C/	-li-	4e\	-li-	4c\	-li-
!	!	!	!	!LO:TX:t=P:problem:kreska pseudotaktowa	!
2C/	-um	2e\	-um	2c\	-um
=22-	=22-	=22-	=22-	=22-	=22-
2F/	De-	2c/	De-	2.A/	De-
!	!	!LO:SIC:v:t=custos d	!	!	!
2D/	-i	2d\	-i	.	.
!	!	!	!	!LO:TX:t=P:problem:kreska pseudotaktowa	!
.	.	.	.	4A/	-i
!	!	!LO:LB:g=original	!	!	!
2G\	u-	2d\	u-	2B\	U-
2C/	-ni-	2e\	-ni-	2c\	-ni-
=23-	=23-	=23-	=23-	=23-	=23-
2D/	-ge-	1.d	-ge-	2A/	-ge-
2D/	-ni-	.	.	2A/	-ni-
0.G	-tum	.	.	0G	-tum
.	.	2d\	-ni-	.	.
=24-	=24-	=24-	=24-	=24-	=24-
.	.	1d	-tum	.	.
.	.	2r	.	0r	.
.	.	1d\	et	.	.
=25-	=25-	=25-	=25-	=25-	=25-
0r	.	.	.	.	.
.	.	2A/	ex	.	.
.	.	2c/	Pa-	1r	.
.	.	2c/	-tre	.	.
=26-	=26-	=26-	=26-	=26-	=26-
1G	an-	1B	na-	2r	.
.	.	.	.	1d	an-
2D/	-te	1A	-tum	.	.
!	!	!	!	!LO:TX:t=P:problem:kreska pseudotaktowa	!
1F\	om-	.	.	2A/	-te
=27-	=27-	=27-	=27-	=27-	=27-
.	.	0r	.	1c	Om-
2E/	-ni-	.	.	.	.
!LO:SIC:v:t=custos F	!	!	!	!	!
1G	-a	.	.	2B\	-ni-
!	!	!	!	!LO:SIC:v:t=custos A	!
.	.	.	.	2B\	-a
=28-	=28-	=28-	=28-	=28-	=28-
!LO:LB:g=original	!	!	!	!LO:LB:g=original	!
4F/	Sae-	1r	.	2A\	Sae-
4G\	.	.	.	.	.
4A\	.	.	.	1c	.
4F/	.	.	.	.	.
2G\	.	2r	.	.	.
!	!	!	!	!LO:TX:t=P:problem:kreska pseudotaktowa	!
2G\	-cu-	2.G/	De-	2B\	-cu-
=29-	=29-	=29-	=29-	=29-	=29-
1C	-la	.	.	1c	-la
.	.	4G/	-um	.	.
.	.	2G/	de	.	.
1r	.	2A/	De-	0r	.
!	!	!LO:SIC:v:t=custos c	!	!	!
.	.	2B/	-o	.	.
=30-	=30-	=30-	=30-	=30-	=30-
!LO:LB:g=original	!	!LO:LB:g=original	!	!	!
2r	.	2c/	lu-	.	.
2c\	lu-	2e\	-men	.	.
2F/	-men	2f\	de	0r	.
2c\	de	2e\	lu-	.	.
=31-	=31-	=31-	=31-	=31-	=31-
2A\	lu-	2c/	-mi-	.	.
2B\	-mi-	2d\	-ne	.	.
2c\	-ne	2e\	.	2r	.
1G\	De-	1d\	De-	1B\	De-
=32-	=32-	=32-	=32-	=32-	=32-
.	.	.	.	.	.
!	!	!	!	!LO:TX:t=P:problem:kreska pseudotaktowa	!
2G\	-um	2d\	-um	2B\	-um
1C	ve-	1e	Ve-	0c	Ve-
=33-	=33-	=33-	=33-	=33-	=33-
1F	-rum	2f\	-rum	.	.
.	.	1f	de	.	.
2D/	de	.	.	2d\	-rum
1A\	De-	1e\	De-	2c\	de
=34-	=34-	=34-	=34-	=34-	=34-
.	.	.	.	1.c	De-
!LO:SIC:v:t=custos G	!	!	!	!	!
2F/	-o	2f\	-o	.	.
!LO:LB:g=original	!	!	!	!	!
1G	Ve-	0d	ve-	.	.
.	.	.	.	2B\	-o
=35-	=35-	=35-	=35-	=35-	=35-
1D	-ro	.	.	1A	Ve-
2r	.	1d	-ro	0G	-ro
1G\	ge-	.	.	.	.
=36-	=36-	=36-	=36-	=36-	=36-
.	.	2r	.	.	.
2G\	-ni-	1d	ge-	.	.
2D/	-tum	.	.	0r	.
!	!	!LO:SIC:v:t=custos A	!	!	!
2D/	non	2d\	-ni-	.	.
=37-	=37-	=37-	=37-	=37-	=37-
!	!	!LO:LB:g=original	!	!	!
1F	fac-	2A/	-tum	.	.
.	.	2A/	Non	.	.
0.C	-tum	1c	fac-	1r	.
=38-	=38-	=38-	=38-	=38-	=38-
.	.	0G	-tum	1c	Con-
.	.	.	.	2c\	-sub-
.	.	.	.	1c\	-stan-
=39-	=39-	=39-	=39-	=39-	=39-
0r	.	0r	.	.	.
.	.	.	.	2A/	-ti-
.	.	.	.	2c\	.
.	.	.	.	2B\	.
=40-	=40-	=40-	=40-	=40-	=40-
!	!	!	!	!LO:LB:g=original	!
0r	.	0r	.	2A/	-a-
!	!	!	!	!LO:TX:t=P:problem:kreska pseudotaktowa	!
.	.	.	.	2.c\	-lem
.	.	.	.	8B\L	.
.	.	.	.	8A\J	.
!	!	!	!	!LO:TX:t=P:problem:kreska pseudotaktowa	!
.	.	.	.	2B\	Pa-
=41-	=41-	=41-	=41-	=41-	=41-
2r	.	2r	.	2c,<\	-tri
1C	per	1e	per-	1c	per-
!	!	!	!	!LO:TX:t=P:problem:kreska pseudotaktowa	!
2C/	quem	2e\	-quem	2c\	-quem
=42-	=42-	=42-	=42-	=42-	=42-
1.F	om-	1.f	Om-	1.c	om
!	!	!	!	!LO:TX:a:t=sol	!
2D/	-ni-	2f\	-ni-	2d\	.
=43-	=43-	=43-	=43-	=43-	=43-
1A	-a	1e	-a	1c	ni-
2.D/	fa-	2d\	fa-	1.A	-a
.	.	2.f\	.	.	.
4E/	.	.	.	.	.
=44-	=44-	=44-	=44-	=44-	=44-
2F/	.	.	.	.	.
.	.	4e\	.	.	.
!LO:SIC:v:t=custos D	!	!	!	!LO:TX:a:t=P:problem:♭ above	!
2G\	.	4d\	.	2B-X\	fac-
.	.	4c/	.	.	.
!LO:LB:g=original	!	!	!	!LO:TX:t=P:problem:kreska pseudotaktowa	!
1D	-cta	2d\	.	1A	-ta
.	.	2d\	-cta	.	.
=45-	=45-	=45-	=45-	=45-	=45-
!	!	!LO:SIC:v:t=custos G	!	!	!
0G	sunt	1d	ſunt	2G/	sunt
.	.	.	.	1Bny	fac-
!	!	!LO:PB:g=original	!	!	!
.	.	2r	.	.	.
.	.	2G/	Qui	2B\	-ta
=46-	=46-	=46-	=46-	=46-	=46-
0r	.	2A/	pro-	1c	sunt
.	.	2c/	-pter	.	.
.	.	4B/	Nos	0r	.
.	.	4c/	.	.	.
.	.	4d\	.	.	.
.	.	4B/	.	.	.
=47-	=47-	=47-	=47-	=47-	=47-
1C	Qui	1c	.	.	.
2D/	pro-	2.A/	ho-	1r	.
2F/	-pter	.	.	.	.
.	.	4A/	-mi-	.	.
=48-	=48-	=48-	=48-	=48-	=48-
4E/	ho-	1G	-nes	2r	.
4F\	.	.	.	.	.
!	!	!	!	!LO:TX:t=P:problem:kreska pseudotaktowa	!
4G/	.	.	.	2G/	Qui
4E/	.	.	.	.	.
*lig	*	*	*	*	*
1F	.	1r	.	2A\	pro-
!	!	!	!	!LO:SIC:v:t=custos B	!
.	.	.	.	2c\	-pter
=49-	=49-	=49-	=49-	=49-	=49-
*col	*	*	*	*	*
!	!	!	!	!LO:LB:g=original	!
2.G\	.	2r	.	4B\	nos
.	.	.	.	4c\	.
.	.	2d\	et	4d\	.
*Xlig	*	*	*	*	*
!	!	!	!	!LO:TX:t=P:problem:kreska pseudotaktowa	!
4G\	-mi-	.	.	4B\	.
*Xcol	*	*	*	*	*
1C	-nes	2e\	pro-	1c	.
.	.	2e\	-pter	.	.
=50-	=50-	=50-	=50-	=50-	=50-
1r	.	1c	noſ-	2.A/	ho-
.	.	.	.	4A/	-mi-
!	!	!	!	!LO:TX:t=P:problem:kreska pseudotaktowa	!
2r	.	2d\	-tr(am)	1G	-nes
2G\	et	2B/	sa-	.	.
=51-	=51-	=51-	=51-	=51-	=51-
2A\	pro-	2.c/	-lu-	2r	.
2A\	-pter	.	.	2c\	et
!	!	!LO:SIC:v:t=custos A	!	!	!
.	.	4B/	.	.	.
!	!	!LO:LB:g=original	!	!	!
1F	noſ-	1A	.	2c\	pro-
!	!	!	!	!LO:TX:t=P:problem:kreska pseudotaktowa	!
.	.	.	.	2c\	-pter
=52-	=52-	=52-	=52-	=52-	=52-
2G\	-tr(am)	1G,<	-tem	1B	Noſ-
!LO:SIC:v:t=custos F	!	!	!	!	!
2E/	sa-	.	.	.	.
!LO:LB:g=original	!	!	!	!	!
2.F/	-lu-	1c	de-	2A/	-tram
.	.	.	.	1c\	Sa-
4E/	.	.	.	.	.
=53-	=53-	=53-	=53-	=53-	=53-
1D	.	1d	-ſcen-	.	.
!	!	!	!	!LO:TX:t=P:problem:kreska pseudotaktowa	!
.	.	.	.	2B\	-lu-
1C,<	-tem	2G/	-dit	1c	-tem
.	.	1c\	de	.	.
=54-	=54-	=54-	=54-	=54-	=54-
1G	des-	.	.	1r	.
.	.	2B/	Cae-	.	.
1A	-cen-	2c,</	-lis	1c	des-
.	.	2e\	deſ-	.	.
=55-	=55-	=55-	=55-	=55-	=55-
!	!	!	!	!LO:SIC:v:t=custos B	!
2F/	-dit	2f\	-cen-	1d	-cen-
2.G\	de	2d\	-dit	.	.
!	!	!	!	!LO:LB:g=original	!
.	.	2g\	de	2B\	-dit
4F/	.	.	.	.	.
4D/	.	2.f\	Cae-	2.d\	de
4E/	.	.	.	.	.
=56-	=56-	=56-	=56-	=56-	=56-
2F/	.	.	.	.	.
.	.	4e\	.	4c\	.
2G\	Cae-	4d\	.	2B\	Cae-
.	.	4c/	.	.	.
1BB	.	1d	-lis.	1A	-lis.
=57-	=57-	=57-	=57-	=57-	=57-
0G;;	-lis.	0d;;	.	0G;;	.
=58||	=58||	=58||	=58||	=58||	=58||
*M2/1	*	*M2/1	*	*M2/1	*
*met(C|)	*	*met(C|)	*	*met(C|)	*
!LO:TX:t=P:problem:przed kluczem inicjał E	!	!LO:TX:t=P:problem:przed kluczem inicjał E	!	!LO:TX:t=P:problem:przed kluczem inicjał E	!
!LO:LB:g=original	!	!LO:LB:g=original	!	!	!
0C	ET	0e	ET	0c	ET
=59-	=59-	=59-	=59-	=59-	=59-
1F	in-	1f	in	1c	in
1C	-car-	1e	Car-	1c	car-
=60-	=60-	=60-	=60-	=60-	=60-
1.G	-na-	1.d	-na-	1.B	-na-
2G\	-tus	2e\	-tus	2B\	-tus
=61-	=61-	=61-	=61-	=61-	=61-
0F	eſt	0f	eſt	0c	eſt
=62-	=62-	=62-	=62-	=62-	=62-
1r	.	1r	.	1r	.
!	!	!	!	!LO:SIC:v:t=custos B	!
1C	de	1e	de	1c	de
=63-	=63-	=63-	=63-	=63-	=63-
!	!	!	!	!LO:PB:g=original	!
1.G	Spi-	1.d	Spi-	1B	Spi-
.	.	.	.	2B\	-ri-
2D/	-ri-	2d\	-ri-	1A\	-tu
=64-	=64-	=64-	=64-	=64-	=64-
1A	-tu	1c	-tu	.	.
.	.	.	.	(<1c	San-
1G	San-	1d	San-	.	.
!	!	!	!	!LO:TX:t=P:problem:kreska pseudotaktowa	!
.	.	.	.	2B\)	.
=65-	=65-	=65-	=65-	=65-	=65-
1C,<	-cto	1e,<	-cto	1c	-cto
!	!	!LO:SIC:v:t=custos d	!	!	!
1D	ex	1d	ex	1A	ex
=66-	=66-	=66-	=66-	=66-	=66-
!	!	!LO:LB:g=original	!	!	!
2D/	Ma-	2d\	Ma-	2A/	Ma-
1G	-ri-	1d	-ri-	1B	-ri-
!LO:SIC:v:t=custos C	!	!	!	!LO:TX:t=P:problem:kreska pseudotaktowa	!
2F/	-a	2f\	-a	2c\	-a
=67-	=67-	=67-	=67-	=67-	=67-
!LO:PB:g=original	!	!	!	!	!
2.C/	vir-	2.e\	Vir-	2.c\	Vir-
4C/	-gi-	4e\	-gi-	4c\	-gi-
!	!	!	!	!LO:TX:t=P:problem:kreska pseudotaktowa	!
1D	-ne	1d,<	-ne	1A	-ne
=68-	=68-	=68-	=68-	=68-	=68-
1G	et	1d	et	1B	et
0F	ho-	0f	ho-	0c	ho-
=69-	=69-	=69-	=69-	=69-	=69-
.	.	.	.	.	.
1C	-mo	1e	-mo	1c	-mo
=70-	=70-	=70-	=70-	=70-	=70-
1.D	fac-	2.d\	fa-	1A	fac-
.	.	8c/L	.	.	.
.	.	8B/J	.	.	.
.	.	2A/	.	1F	-tus
2D/	-tus	2B/	-ctus	.	.
=71-	=71-	=71-	=71-	=71-	=71-
0C;;	eſt.	0c;;	eſt	0G;;	eſt.
=72||	=72||	=72||	=72||	=72||	=72||
*M2/1	*	*M2/1	*	*M2/1	*
*met(C|)	*	*met(C|)	*	*met(C|)	*
!LO:TX:t=P:problem:przed kluczem inicjał C	!	!LO:TX:t=P:problem:przed kluczem inicjał C	!	!LO:TX:t=P:problem:przed kluczem inicjał C	!
!LO:LB:g=original	!	!LO:LB:g=original	!	!LO:LB:g=original	!
!LO:TX:t=P:problem:reklamant (cantus)	!	!	!	!	!
0r	.	0r	.	1G	Cru-
.	.	.	.	2A/	-ci-
.	.	.	.	1c\	-fi-
=73-	=73-	=73-	=73-	=73-	=73-
1G	Cru-	2.g\	Cru-	.	.
!	!	!	!	!LO:TX:t=P:problem:kreska pseudotaktowa	!
.	.	.	.	2B\	-xus
.	.	4g\	-ci-	.	.
2A\	-ci-	2f\	-fix-	2c\	e-
1c\	-fix-	1e\	-us	2c\	-ti-
=74-	=74-	=74-	=74-	=74-	=74-
.	.	.	.	2G/	-am
!	!	!	!	!LO:TX:t=P:problem:kreska pseudotaktowa	!
2B\	-us	2d\	e-	2G/	pro
2c\	e-	2d\	-ti-	1A	no-
2c\	-ti-	4c/	-am	.	.
.	.	4d\	.	.	.
=75-	=75-	=75-	=75-	=75-	=75-
2G\	-am	4e\	.	2B\	-bis
.	.	4c/	.	.	.
2G\	pro	2d\	.	2.d\	pro
1A	no-	1g	pro	.	.
.	.	.	.	4c\	.
.	.	.	.	1c\	no-
=76-	=76-	=76-	=76-	=76-	=76-
1G	-bis	2f\	no-	.	.
!	!	!	!	!LO:TX:t=P:problem:kreska pseudotaktowa	!
.	.	1g	-bis	2B\	.
2r	.	.	.	2c\	-bis
!	!	!	!	!LO:SIC:v:t=custos A	!
!	!	!	!	!LO:TX:t=P:problem:kreska pseudotaktowa	!
2C/	Sub	2e\	sub	2c\	sub
=77-	=77-	=77-	=77-	=77-	=77-
!	!	!	!	!LO:LB:g=original	!
2D/	Pon-	2d\	Pon-	2A/	Pon-
2D/	-ti-	2d\	-ti-	2F/	-ti-
!	!	!LO:SIC:v:t=custos e	!	!LO:TX:t=P:problem:kreska pseudotaktowa	!
2E/	-o	2B/	-o	1G	-o
!LO:SIC:v:t=custos F	!	!LO:LB:g=original	!	!	!
2E/	Pi-	2e\	Pi-	.	.
=78-	=78-	=78-	=78-	=78-	=78-
!LO:LB:g=original	!	!	!	!	!
2.F/	-la-	2d\	-la-	1A	Pi-
.	.	1c	.	.	.
4E/	.	.	.	.	.
1D	.	.	.	1F	-la-
.	.	2B/	.	.	.
=79-	=79-	=79-	=79-	=79-	=79-
1C,<	-to	1c	-to	1G	-to
1C	Paſ-	1e	Paſ-	1.c	Paſ-
=80-	=80-	=80-	=80-	=80-	=80-
0G	-sus	0d	-sus	.	.
.	.	.	.	4B\	.
!	!	!	!	!LO:TX:t=P:problem:kreska pseudotaktowa	!
.	.	.	.	4A/	.
.	.	.	.	1B	.
=81-	=81-	=81-	=81-	=81-	=81-
1.F	et	1f	.	1c,<	-sus
.	.	2c/	et	1A	et
2D/	se-	2.d\	ſe-	.	.
=82-	=82-	=82-	=82-	=82-	=82-
1E	-pul-	.	.	1G	se-
.	.	4c/	.	.	.
.	.	1c	-pul-	.	.
1D	-tus	.	.	2A/	-pul-
.	.	2B/	-tus	2F/	-tus
=83-	=83-	=83-	=83-	=83-	=83-
!	!	!	!	!LO:TX:t=P:problem:kreska pseudotaktowa	!
0C	eſt	0c	eſt	0G	eſt
=84-	=84-	=84-	=84-	=84-	=84-
0r	.	0r	.	1c	Et
.	.	.	.	2A/	re-
!	!	!	!	!LO:SIC:v:t=custos d	!
.	.	.	.	2A/	-ſur-
=85-	=85-	=85-	=85-	=85-	=85-
!	!	!	!	!LO:LB:g=original	!
1r	.	2r	.	1d	-re-
.	.	1d	Et	.	.
1G	Et	.	.	1B	-xit
.	.	2B/	re-	.	.
=86-	=86-	=86-	=86-	=86-	=86-
2E/	re-	2B/	-ſur-	2r	.
2E/	-ſur-	1e	-re-	2B\	ter-
1A	-re-	.	.	2c\	-ti-
!	!	!LO:SIC:v:t=custos d	!	!	!
.	.	2c/	-xit	2A/	-a
=87-	=87-	=87-	=87-	=87-	=87-
!	!	!LO:PB:g=original	!	!	!
2G\	-xit	2d\	ter-	2.B\	di-
!LO:SIC:v:t=custos F	!	!	!	!	!
2G\	ter-	2e\	-ti-	.	.
.	.	.	.	8A/L	.
!	!	!	!	!LO:TX:t=P:problem:kreska pseudotaktowa	!
.	.	.	.	8G/J	.
!LO:LB:g=original	!	!	!	!	!
2F/	-ti-	2f\	-a	4A/	.
.	.	.	.	4B\	.
!	!	!	!	!LO:TX:t=P:problem:kreska pseudotaktowa	!
2C/	-a	2.e\	di-	2.c\	.
=88-	=88-	=88-	=88-	=88-	=88-
1G	di-	.	.	.	.
.	.	8d\L	.	8B\L	.
.	.	8c\J	.	8A\J	.
!	!	!	!	!LO:TX:t=P:problem:kreska pseudotaktowa	!
.	.	2d\	.	2B\	.
2C/	-e	2e\	-e	2c,<\	-e
2C/	se-	2e\	ſe-	2c\	Se-
=89-	=89-	=89-	=89-	=89-	=89-
!	!	!	!	!LO:TX:t=P:problem:kreska pseudotaktowa	!
1D	-cun-	1d	-cun-	1A	-cun-
2E/	-d(um)	2B/	-d(um)	2G/	-d(um)
!	!	!	!	!LO:SIC:v:t=custos B	!
2F/	Scrip-	2A/	Sci-	2c\	Scri-
=90-	=90-	=90-	=90-	=90-	=90-
*lig	*	*	*	*	*
!	!	!	!	!LO:LB:g=original	!
1G	-tu-	1d	-ptu-	2.B\	ptu-
.	.	.	.	8A/L	.
.	.	.	.	8G/J	.
1D	.	1d	-ras	1A	.
*Xlig	*	*	*	*	*
=91-	=91-	=91-	=91-	=91-	=91-
*	*	*	*	*lig	*
1G	-ras	2r	.	1B	.
.	.	2G/	Et	.	.
0r	.	1A	a-	1c	.
*	*	*	*	*Xlig	*
=92-	=92-	=92-	=92-	=92-	=92-
.	.	1B	-ſcen-	1G	-ras
1C	et	2c/	-dit	0r	.
!	!	!LO:SIC:v:t=custos A	!	!	!
.	.	2c/	in	.	.
=93-	=93-	=93-	=93-	=93-	=93-
!	!	!LO:LB:g=original	!	!	!
1D	aſ-	1A	Cae-	.	.
1E	-cen-	1G	-lum	1G	Et
=94-	=94-	=94-	=94-	=94-	=94-
2F/	-dit	1r	.	1A	a-
2F/	in	.	.	.	.
1G	Cae-	2r	.	1B	-ſcen-
*	*	*	*ij	*	*
.	.	2d\	Et	.	.
=95-	=95-	=95-	=95-	=95-	=95-
1C	-lum	1e	a-	2c\	-dit
!	!	!	!	!LO:TX:t=P:problem:kreska pseudotaktowa	!
.	.	.	.	2c\	in
!LO:LB:g=original	!	!	!	!	!
1r	.	1f	-ſcen-	1A	Cae-
=96-	=96-	=96-	=96-	=96-	=96-
2r	.	2g\	-dit	2G/	-lum
*	*ij	*	*	*	*
!	!	!	!	!LO:TX:t=P:problem:kreska pseudotaktowa	!
2G\	et	2g\	in	2B\	et
1A	aſ-	1e	Cae-	1c	as-
=97-	=97-	=97-	=97-	=97-	=97-
1B	-cen-	1d	-lum	1d	-cen-
2c\	-dit	2r	.	2e\	-dit
!	!	!	!	!LO:SIC:v:t=custos c	!
2c\	in	2c/	Et	2e\	in
=98-	=98-	=98-	=98-	=98-	=98-
!	!	!	!	!LO:LB:g=original	!
1A	Cae-	2c/	a-	1c	Cae-
.	.	2A/	-ſcen-	.	.
1G	-lum	2B/	-dit	2d,<\	-lum
*	*Xij	*	*	*	*
!	!	!	!	!LO:TX:t=P:problem:kreska pseudotaktowa	!
.	.	2B/	in	2d\	Se-
=99-	=99-	=99-	=99-	=99-	=99-
1r	.	1A	Cae-	2c\	-det
.	.	.	.	2A/	ad
2r	.	1G	-lum	2.B\	dex-
*	*	*	*Xij	*	*
2G\	Se-	.	.	.	.
!	!	!	!	!LO:TX:t=P:problem:kreska pseudotaktowa	!
.	.	.	.	4B\	-te-
=100-	=100-	=100-	=100-	=100-	=100-
2F/	-det	2r	.	2.A/	-ram
!	!	!LO:SIC:v:t=custos c	!	!	!
2D/	ad	2d\	se-	.	.
.	.	.	.	4G/	.
!	!	!LO:LB:g=original	!	!	!
1F	dex-	2c/	det	2A/	.
.	.	2A/	ad	1d\	Pa-
=101-	=101-	=101-	=101-	=101-	=101-
1E	-te-	2B/	dex-	.	.
!	!	!	!	!LO:TX:t=P:problem:kreska pseudotaktowa	!
.	.	2G/	-te-	2c\	-tris
!	!	!	!	!LO:TX:t=P:problem:kreska pseudotaktowa	!
2D/	-ram	2A/	-r(am)	1d	.
2G\	Pa-	2B/	Pa-	.	.
=102-	=102-	=102-	=102-	=102-	=102-
*	*	*lig	*	*	*
2F/	-tris	1A	.	2r	.
2D/	d	.	.	2d\	ad
*	*	*col	*	*	*
2E/	dex-	2.G/	.	2B\	dex-
!LO:SIC:v:t=custos G	!	!	!	!LO:TX:t=P:problem:kreska pseudotaktowa	!
2C/	-te-	.	.	2c\	-te-
*	*	*Xlig	*	*	*
.	.	4A/	.	.	.
*	*	*Xcol	*	*	*
=103-	=103-	=103-	=103-	=103-	=103-
!LO:LB:g=original	!	!	!	!	!
1G	-ram	2.B/	.	2d\	-ram
!	!	!	!	!LO:SIC:v:t=custos A	!
!	!	!	!	!LO:TX:t=P:problem:kreska pseudotaktowa	!
.	.	.	.	2B\	Pa-
.	.	4c/	.	.	.
!	!	!	!	!LO:PB:g=original	!
!	!	!	!	!LO:TX:t=P:problem:kreska pseudotaktowa	!
1D	Pa-	1d	.	1A	.
=104-	=104-	=104-	=104-	=104-	=104-
2G,<\	-tris	2d,<\	tris	2G,</	-tris
2D/	Et	2f\	Et	2d\	Et
2.A\	i-	2.e\	i-	2.c\	i-
!	!	!	!	!LO:TX:t=P:problem:kreska pseudotaktowa	!
4A\	-te-	4e\	-te-	4c\	-te-
=105-	=105-	=105-	=105-	=105-	=105-
2E/	-rum	2d\	-rum	2B\	-rum
!	!	!	!	!LO:TX:t=P:problem:kreska pseudotaktowa	!
2F/	ven-	2c/	ven-	2A/	Ven-
!	!	!LO:LB:g=original	!	!	!
2D/	-tu-	2d\	-tu-	2A/	-tu-
!	!	!	!	!LO:TX:t=P:problem:kreska pseudotaktowa	!
2D/	-rus	2d\	-rus	2B\	-rus
=106-	=106-	=106-	=106-	=106-	=106-
2C/	eſt	2G/	eſt	2c\	eſt
2E/	cum	2G/	cum	2c\	Cum
2.D/	glo-	2.d\	glo-	2.A/	glo-
!	!	!	!	!LO:TX:t=P:problem:kreska pseudotaktowa	!
4D/	-ri-	4d\	-ri-	4A/	-ri-
=107-	=107-	=107-	=107-	=107-	=107-
2G\	-a	2d\	-a	2B\	-a
!	!	!	!	!LO:TX:t=P:problem:kreska pseudotaktowa	!
1F	iu-	1f	iu-	2c\	iu-
!	!	!	!	!LO:N:xstem:cue	!
.	.	.	.	4c	.
.	.	.	.	4c\	-di
2D/	-di-	2f\	-di-	2.d\	ca-
=108-	=108-	=108-	=108-	=108-	=108-
!LO:SIC:v:t=custos b	!	!	!	!	!
1A	-ca-	1e	-ca-	.	.
.	.	.	.	8c\L	.
.	.	.	.	8B\J	.
!	!	!	!	!LO:SIC:v:t=custos a	!
!	!	!	!	!LO:TX:t=P:problem:kreska pseudotaktowa	!
.	.	.	.	2c\	.
!LO:PB:g=original	!	!	!	!LO:LB:g=original	!
2D/	-re	2d\	-re	2A/	-re
!	!	!	!	!LO:TX:t=P:problem:kreska pseudotaktowa	!
2G\	vi-	2d\	vi-	2B\	Vi-
=109-	=109-	=109-	=109-	=109-	=109-
2F/	-vos	2A/	-vos	2c\	-vos
!	!	!	!	!LO:TX:t=P:problem:kreska pseudotaktowa	!
2D/	et	2d\	et	2F/	et
*lig	*	*	*	*lig	*
1E	mor-	2B/	mor-	1G	mor-
.	.	1c\	-tu-	.	.
=110-	=110-	=110-	=110-	=110-	=110-
*col	*	*	*	*col	*
2.F\	.	.	.	2.A\	.
.	.	4B/	.	.	.
*Xlig	*	*	*	*Xlig	*
!	!	!LO:SIC:v:t=custos B	!	!	!
4F/	-tu-	4A/	.	4A/	-tu-
*Xcol	*	*	*	*Xcol	*
!	!	!LO:LB:g=original	!	!LO:TX:t=P:problem:kreska pseudotaktowa	!
1E	-os	1B	-os	1G	-os
=111-	=111-	=111-	=111-	=111-	=111-
1C	Cu-	1e	Cu-	1c	Cu-
2C/	-ius	2e\	-ius	2c\	-ius
1F\	reg-	1f\	re-	1c\	re-
=112-	=112-	=112-	=112-	=112-	=112-
.	.	.	.	.	.
!	!	!	!	!LO:TX:t=P:problem:kreska pseudotaktowa	!
2F/	-ni	2f\	-gni	2A/	-gni
1G	non	2d\	non	1B	non
.	.	1e\	e-	.	.
=113-	=113-	=113-	=113-	=113-	=113-
2A\	e-	.	.	2c\	e-
2A\	-rit	2c/	-rit	4A/	-rit
.	.	.	.	2c\	fi-
1G	fi-	1d	fi-	.	.
.	.	.	.	8B\L	.
.	.	.	.	8A\J	.
.	.	.	.	2B\	.
=114-	=114-	=114-	=114-	=114-	=114-
!	!	!	!	!LO:SIC:v:t=custos G	!
!	!	!	!	!LO:TX:t=P:problem:kreska pseudotaktowa	!
1C,<	-nis	2e\	-nis	1c	-nis
.	.	1g	Et	.	.
!LO:SIC:v:t=custos A	!	!	!	!LO:LB:g=original	!
1c	Et	.	.	0r	.
.	.	2e\	in	.	.
=115-	=115-	=115-	=115-	=115-	=115-
!LO:LB:g=original	!	!	!	!	!
2A\	in	1f	Spi-	.	.
1B-X	Spi-	.	.	.	.
.	.	2d\	-ri-	0r	.
2G\	-ri-	2e\	-tum	.	.
=116-	=116-	=116-	=116-	=116-	=116-
2A\	-tum	2c/	San-	.	.
2F/	San-	2d\	-ctum	.	.
2G\	-ctum	2.e\	Do-	1r	.
1c\	D(o-	.	.	.	.
.	.	8d\L	.	.	.
!	!	!LO:SIC:v:t=custos d	!	!	!
.	.	8c\J	.	.	.
=117-	=117-	=117-	=117-	=117-	=117-
!	!	!LO:LB:g=original	!	!	!
.	.	2d\	.	1G	et
2Bny\	-mi)-	2d\	mi-	.	.
1c	-num	1c	-num	2A/	vi-
.	.	.	.	1c\	-vi-
=118-	=118-	=118-	=118-	=118-	=118-
0r	.	1r	.	.	.
!	!	!	!	!LO:TX:t=P:problem:kreska pseudotaktowa	!
.	.	.	.	2B\	-fi-
.	.	2r	.	1A	-can-
.	.	2c/	Qui	.	.
=119-	=119-	=119-	=119-	=119-	=119-
2r	.	1.d	ex	2G/	-tem
1G	qui	.	.	1B	qui
!	!	!	!	!LO:TX:t=P:problem:kreska pseudotaktowa	!
2D/	ex	1f\	Pa-	2d\	ex
=120-	=120-	=120-	=120-	=120-	=120-
1A	Pa-	.	.	1c	Pa-
.	.	2e\	-tre	.	.
!	!	!	!	!LO:TX:t=P:problem:kreska pseudotaktowa	!
1E	-tre	2.e\	fi-	1B	-tre
.	.	4e\	-li-	.	.
=121-	=121-	=121-	=121-	=121-	=121-
2.F/	fi-	2c/	-o-	1.A	fi-
.	.	1f	-que-	.	.
4F/	-li-	.	.	.	.
2D/	-o-	.	.	.	.
1A\	-que	4e\	.	2A/	-li-
.	.	4d\	.	.	.
=122-	=122-	=122-	=122-	=122-	=122-
!	!	!	!	!LO:TX:t=P:problem:kreska pseudotaktowa	!
.	.	2e\	.	1c	-o-
!LO:SIC:v:t=custos G	!	!	!	!	!
2F/	pro-	2f\	-pro	.	.
!LO:LB:g=original	!	!	!	!	!
1G	-ce-	0d	ce-	1B	-que
=123-	=123-	=123-	=123-	=123-	=123-
1D	-dit	.	.	2A/	pro
.	.	.	.	1d	.
!	!	!LO:SIC:v:t=custos d	!	!	!
1r	.	1A	-dit	.	.
!	!	!	!	!LO:TX:t=P:problem:kreska pseudotaktowa	!
.	.	.	.	2c\	ce-
=124-	=124-	=124-	=124-	=124-	=124-
!	!	!LO:PB:g=original	!	!LO:SIC:v:t=custos d	!
1G	Qui	1r	.	1d	-dit
!LO:TX:b:t=P:problem:# below	!	!	!	!LO:LB:g=original	!
1F#X	cum	2r	.	0r	.
.	.	2d\	Qui	.	.
=125-	=125-	=125-	=125-	=125-	=125-
!	!	!LO:TX:b:t=P:problem:# below	!	!	!
1A	Pa-	1c#X	cum	.	.
1G	-tre	1e	Pa-	1r	.
=126-	=126-	=126-	=126-	=126-	=126-
0r	.	1d	-tre	2r	.
.	.	.	.	2d\	qui
!	!	!	!	!LO:TX:b:t=P:problem:# below	!
.	.	1r	.	1c#X	cum
=127-	=127-	=127-	=127-	=127-	=127-
!!LO:TX:t=P:problem: problem harmoniczny
2r	.	1cny	et	1e	Pa-
2C/	et	.	.	.	.
!	!	!	!	!LO:TX:t=P:problem:kreska pseudotaktowa	!
2Fny/	fi-	2A/	fi-	1d	-tre
2G\	-li-	2B/	-li-	.	.
=128-	=128-	=128-	=128-	=128-	=128-
1C	-o	1c	-o	2r	.
.	.	.	.	2e\	et
1r	.	1r	.	2cny\	fi-
!	!	!	!	!LO:TX:t=P:problem:kreska pseudotaktowa	!
.	.	.	.	2d\	-li-
=129-	=129-	=129-	=129-	=129-	=129-
2r	.	2r	.	2G/	-o
1F	Si-	1f	Si-	1c	Si-
!	!	!	!	!LO:TX:t=P:problem:kreska pseudotaktowa	!
2F/	-mul	2f\	-mul	2c\	-mul
=130-	=130-	=130-	=130-	=130-	=130-
1D	a-	1f	a-	1d	a-
1A	-do-	2e\	-do-	1c	-do-
.	.	2.f\	-ra-	.	.
=131-	=131-	=131-	=131-	=131-	=131-
!LO:SIC:v:t=custos A	!	!	!	!	!
0B-X	-ra-	.	.	0d	-ra-
.	.	4e\	.	.	.
.	.	4d\	.	.	.
.	.	4c/	.	.	.
!	!	!LO:SIC:v:t=custos c	!	!	!
.	.	1d	.	.	.
=132-	=132-	=132-	=132-	=132-	=132-
!LO:LB:g=original	!	!LO:LB:g=original	!	!	!
0A	-tur	2c,</	-tur	2e\	-tur
!	!	!	!	!LO:TX:t=P:problem:kreska pseudotaktowa	!
.	.	2e\	et	2A/	et
.	.	2e\	Con-	2c\	Con
!	!	!	!	!LO:SIC:v:t=custos B	!
.	.	2e\	-glo-	2c\	glo-
=133-	=133-	=133-	=133-	=133-	=133-
!!LO:TX:t=P:problem: problem harmoniczny
!	!	!	!	!LO:LB:g=original	!
0r	.	2d\	-ri-	2B-X\	-ri-
!	!	!	!	!LO:TX:t=P:problem:kreska pseudotaktowa	!
.	.	4B/	-fi-	2G/	-fi-
.	.	2d\	-ca-	.	.
.	.	.	.	1A	-ca-
.	.	8c/L	.	.	.
.	.	8B/J	.	.	.
.	.	2c/	.	.	.
=134-	=134-	=134-	=134-	=134-	=134-
2r	.	2d,<\	-tur	2D/	-tur
1D	Qui	1d	Qui	1A	qui
!	!	!	!	!LO:TX:t=P:problem:kreska pseudotaktowa	!
2D/	lo-	2d\	lo-	2A/	lo-
=135-	=135-	=135-	=135-	=135-	=135-
2C/	-cu-	2e\	-cu-	2c\	-cu-
2C/	-tus	2e\	-tus	2c\	-tus
!	!	!	!	!LO:TX:t=P:problem:kreska pseudotaktowa	!
1G	eſt	2d\	eſt	1Bny	eſt
.	.	1e\	per	.	.
=136-	=136-	=136-	=136-	=136-	=136-
1A	per	.	.	1.c	per
.	.	2e\	Pro-	.	.
2F/	Pro-	4f\	-phe-	.	.
.	.	4e\	.	.	.
2G\	-phe-	4d\	.	2B\	Pro-
!	!	!LO:SIC:v:t=custos d	!	!	!
.	.	4c/	.	.	.
=137-	=137-	=137-	=137-	=137-	=137-
!	!	!LO:LB:g=original	!	!	!
1D	.	1d	.	1A	-phe-
1G	-tas	2d\	-tas	1G	-tas
.	.	2G/	et	.	.
=138-	=138-	=138-	=138-	=138-	=138-
2r	.	2G/	u-	0r	.
2C/	et	2G/	-nam	.	.
2C/	u-	1c	San-	.	.
2C/	-nam	.	.	.	.
=139-	=139-	=139-	=139-	=139-	=139-
1F	San-	2A/	-ct(am)	0r	.
.	.	2A/	Ca-	.	.
2D/	-ct(am)	2.d\	-tho-	.	.
!LO:SIC:v:t=custos G	!	!	!	!	!
2D/	Ca-	.	.	.	.
.	.	4d\	-li-	.	.
=140-	=140-	=140-	=140-	=140-	=140-
!LO:LB:g=original	!	!	!	!	!
2.G\	-tho-	2B/	-cam	2r	.
!	!	!	!	!LO:TX:t=P:problem:kreska pseudotaktowa	!
.	.	2B/	et	2G/	et
4G\	-li-	.	.	.	.
2E/	-c(am)	2e\	A-	2G/	u-
!	!	!	!	!LO:TX:t=P:problem:kreska pseudotaktowa	!
2E/	et	2e\	-po-	2G/	-n(am)
=141-	=141-	=141-	=141-	=141-	=141-
!	!	!	!	!LO:SIC:v:t=custos A	!
2A\	A-	2c/	-sto-	1c	San-
2A\	-po-	2A/	-li-	.	.
!	!	!	!	!LO:LB:g=original	!
2.F/	-sto-	2c/	-cam	2A/	-ct(am)
!	!	!	!	!LO:TX:t=P:problem:kreska pseudotaktowa	!
.	.	1f\	Ec-	2A/	Ca-
4F/	-li-	.	.	.	.
=142-	=142-	=142-	=142-	=142-	=142-
2D/	-cam	.	.	2.d\	-tho-
2D/	Ec-	1d	-cle-	.	.
.	.	.	.	4d\	-li-
2.G\	-cle-	.	.	2B\	-cam
!	!	!LO:SIC:v:t=custos c	!	!LO:TX:t=P:problem:kreska pseudotaktowa	!
.	.	2d\	-si-	2B\	et
4G\	-si-	.	.	.	.
=143-	=143-	=143-	=143-	=143-	=143-
!	!	!LO:LB:g=original	!	!	!
0C	-am	1c	-am	2e\	A-
.	.	.	.	2e\	-po-
.	.	2r	.	2c\	-sto-
!	!	!	!	!LO:TX:t=P:problem:kreska pseudotaktowa	!
.	.	2c/	Con-	2c\	-li-
=144-	=144-	=144-	=144-	=144-	=144-
1r	.	2c/	-fi-	2A/	-cam
.	.	2B/	-te-	2G/	Ec-
2r	.	2c/	-or	2.A/	-cle-
2c\	Con-	2c/	V-	.	.
!	!	!	!	!LO:TX:t=P:problem:kreska pseudotaktowa	!
.	.	.	.	4A/	-si-
=145-	=145-	=145-	=145-	=145-	=145-
2c\	-fi-	2d\	-num	1G	-am
!LO:SIC:v:t=custos c	!	!	!	!	!
2Bny\	-te-	2d\	Bap-	.	.
!LO:LB:g=original	!	!	!	!	!
2c\	-or	2.e\	-ti-	2r	.
2c\	u-	.	.	2c\	Con-
.	.	4e\	.	.	.
=146-	=146-	=146-	=146-	=146-	=146-
2A\	-num	4d\	.	2c\	-fi-
.	.	4c/	.	.	.
!	!	!	!	!LO:TX:t=P:problem:kreska pseudotaktowa	!
2G\	Ba-	2.e\	.	2B\	-te-
*lig	*	*	*	*	*
!	!	!	!	!LO:PB:g=original	!
1A	-pti-	.	.	2c\	-or
.	.	4d\	.	.	.
.	.	1c\	.	2c\	U-
=147-	=147-	=147-	=147-	=147-	=147-
1G	.	.	.	2d\	-num
!	!	!	!	!LO:TX:t=P:problem:kreska pseudotaktowa	!
.	.	2B/	.	2d\	Bap-
*Xlig	*	*	*	*	*
2C/	-sma	1c	-sma	2e\	-tiſ-
1F\	in	.	.	1c\	-ma
=148-	=148-	=148-	=148-	=148-	=148-
.	.	1r	.	.	.
!	!	!	!	!LO:TX:t=P:problem:kreska pseudotaktowa	!
2G\	re-	.	.	2B\	in
2A\	-miſ-	2r	.	1c	re-
2F/	-si-	2A/	in	.	.
=149-	=149-	=149-	=149-	=149-	=149-
1G	-o-	2d\	re-	1B	-miſ-
.	.	1d	-miſ-	.	.
1D	-nem	.	.	2A/	-si-
!	!	!LO:SIC:v:t=custos c	!	!	!
.	.	2d\	-si-	1A\	-o-
=150-	=150-	=150-	=150-	=150-	=150-
!	!	!LO:LB:g=original	!	!	!
1.A	pec-	2.c/	-o-	.	.
!	!	!	!	!LO:TX:t=P:problem:kreska pseudotaktowa	!
.	.	.	.	2c\	-nem
.	.	4d\	.	.	.
*	*	*	*	*lig	*
.	.	2e\	.	1c	pec-
2F/	-ca-	1f\	.	.	.
=151-	=151-	=151-	=151-	=151-	=151-
1B-X	-to-	.	.	1.d	.
.	.	4e\	.	.	.
.	.	4d\	.	.	.
!LO:SIC:v:t=custos F	!	!	!	!	!
1A	-rum	2e\	-nem	.	.
*	*	*	*	*Xlig	*
.	.	2f\	pec-	4c\	-ca-
!	!	!	!	!LO:TX:t=P:problem:kreska pseudotaktowa	!
.	.	.	.	4B\	.
=152-	=152-	=152-	=152-	=152-	=152-
!LO:PB:g=original	!	!	!	!	!
0r	.	2e\	-ca-	2c\	.
.	.	2.d\	-to-	2G/	.
.	.	.	.	2A/	.
.	.	4c/	.	.	.
!	!	!	!	!LO:SIC:v:t=custos G	!
.	.	1c\	.	2F/	.
=153-	=153-	=153-	=153-	=153-	=153-
!	!	!	!	!LO:LB:g=original	!
!	!	!	!	!LO:TX:t=P:problem:kreska pseudotaktowa	!
1r	.	.	.	1G	-to-
.	.	2B/	.	.	.
2r	.	2c,</	-rum	2C/	-rum
1F\	et	1f\	et	1c\	et
=154-	=154-	=154-	=154-	=154-	=154-
.	.	.	.	.	.
!	!	!	!	!LO:TX:t=P:problem:kreska pseudotaktowa	!
2F/	ex-	2f\	ex-	2c\	ex-
1C	-pec-	1e	-pec-	1c	-pec-
=155-	=155-	=155-	=155-	=155-	=155-
2F/	-to	2f\	-to	2c\	-to
1D	re-	1f	re-	1d	re-
!	!	!LO:SIC:v:t=custos d	!	!LO:TX:t=P:problem:kreska pseudotaktowa	!
2D/	-ſur-	2f\	-ſur-	2d\	-ſur-
=156-	=156-	=156-	=156-	=156-	=156-
!	!	!LO:LB:g=original	!	!	!
2G\	-re-	2d\	-re-	2B\	-re-
2F/	-cti-	2f\	-cti-	2c\	-cti-
1Bny	-o-	2f\	-o-	1d	-o-
.	.	4e\	.	.	.
.	.	4d\	.	.	.
=157-	=157-	=157-	=157-	=157-	=157-
!	!	!	!	!LO:TX:t=P:problem:kreska pseudotaktowa	!
2A\	-nem	2e\	.	1c	-nem
1F	mor-	2f\	-nem	.	.
.	.	2f\	pec-	2A/	mor-
2G\	-tu-	2d\	-ca-	2B-X\	-tu-
=158-	=158-	=158-	=158-	=158-	=158-
*lig	*	*	*	*lig	*
1D	-o-	1d	-to-	1A	-o-
*	*	*	*	*col	*
1C	.	1e	-rum	2.Bny\	.
*	*	*	*	*Xlig	*
.	.	.	.	4B\	.
*Xlig	*	*	*	*Xcol	*
=159-	=159-	=159-	=159-	=159-	=159-
1D	-rum	2r	.	1A	.
.	.	2A/	et	.	.
!	!	!	!	!LO:SIC:v:t=custos A	!
!	!	!	!	!LO:TX:t=P:problem:kreska pseudotaktowa	!
0r	.	2B/	Vi-	1G	-rum
.	.	1d\	-tam	.	.
=160-	=160-	=160-	=160-	=160-	=160-
!	!	!	!	!LO:LB:g=original	!
.	.	.	.	0r	.
.	.	2c/	ven-	.	.
2r	.	2d\	-tu-	.	.
2D/	et	2d\	-ri	.	.
=161-	=161-	=161-	=161-	=161-	=161-
2E/	vi-	2.B/	Sae-	1r	.
1G	-t(am)	.	.	.	.
.	.	4B/	-cu-	.	.
!	!	!LO:SIC:v:t=custos d	!	!	!
.	.	1A	-li	2r	.
!	!	!	!	!LO:TX:t=P:problem:kreska pseudotaktowa	!
2F/	ven-	.	.	2A/	et
=162-	=162-	=162-	=162-	=162-	=162-
!LO:LB:g=original	!	!LO:PB:g=original	!	!	!
2G\	-tu-	2r	.	2B\	vi-
2G\	-ri	2d\	et	1d	-t(am)
2.E/	Sae-	2e\	vi-	.	.
!	!	!	!	!LO:TX:t=P:problem:kreska pseudotaktowa	!
.	.	1g\	-t(am)	2c\	ven-
4E/	-cu-	.	.	.	.
=163-	=163-	=163-	=163-	=163-	=163-
1D	-li	.	.	2d\	-tu-
.	.	2f\	ven-	2d\	-ri
1G	et	2g\	-tu-	2.B\	Sae-
.	.	2g\	-ri	.	.
.	.	.	.	4B\	-cu-
=164-	=164-	=164-	=164-	=164-	=164-
2A\	vi-	2.e\	Sae-	1A	-li
1c	-t(am)	.	.	.	.
.	.	4e\	-cu-	.	.
.	.	2d,<\	-li	1r	.
*	*	*	*ij	*	*
2B\	ven-	1g\	et	.	.
=165-	=165-	=165-	=165-	=165-	=165-
2c\	-tu-	.	.	2r	.
2c\	-ri	1e	vi-	2c\	et
2.A\	Sae-	.	.	1c	vi-
.	.	2c/	-t(am)	.	.
4A\	-cu-	.	.	.	.
=166-	=166-	=166-	=166-	=166-	=166-
1G	-li	2d\	ven-	2B\	-t(am)
!	!	!	!	!LO:TX:t=P:problem:kreska pseudotaktowa	!
.	.	1g	-tu-	2B\	ven-
1D	A-	.	.	2A/	-tu-
.	.	2f\	-ri	2A/	-ri
=167-	=167-	=167-	=167-	=167-	=167-
1G	.	2g\	Sae-	2.B\	Sae-
.	.	2d\	-cu-	.	.
.	.	.	.	4B\	-cu-
1.C	-men	2e\	-li	2c\	-li
*	*	*	*Xij	*	*
.	.	1c\	A-	1e\	A-
=168-	=168-	=168-	=168-	=168-	=168-
.	.	.	.	.	.
2BB/	A-	2d\	.	2.d\	.
1C	.	1e	.	.	.
.	.	.	.	4c\	.
.	.	.	.	1c\	.
=169-	=169-	=169-	=169-	=169-	=169-
0G;;	-men.	0d;;	-men	.	.
.	.	.	.	4B\	.
.	.	.	.	4A/	.
!	!	!	!	!LO:N:vis=0	!
.	.	.	.	1B;;	-men.
!LO:LB:g=original	!	!LO:LB:g=original	!	!LO:LB:g=original	!
=-	=-	=-	=-	=-	=-
*-	*-	*-	*-	*-	*-
!!!system-decoration: [(s1,s2,s3)]
!!!AIN: 1 empty 1 tenor 1 vox
!!!ENC: Marta Chmielewska
!!!END: 2021-03-23
!!!RDF**kern: < = below
!!!RDF**kern: > = above
!!!ENC: Berenika Jozajtis
!!!END: 2021-03-08
